X:13025
T:Mother and Child
T:Mother's Little Pet
R:Reel
C:Trad.
O:Ireland
Z:Paul Hardy's Session Tunebook 2022 (see www.paulhardy.net). Creative Commons cc by-nc-sa licenced.
M:4/4
L:1/8
Q:1/4=120
K:D
AB|"D"A2 "A7"GE "D"FDD2|"Em"EFGD "A7"EFGE|"D"A2 "A7"GE "D"FDDF|"A7"EFGE "D"A2:|
|:ed|"A"cAAB cdeg|"D"fd "A"ec "D"dcAB|"A"cAAB cdeg|"D"fd "A7"ec "D"d2:|

